X:1
T:Beautiful Eden Bells
T:James Milton Black
T:Beautiful Eden Bells
T:Public Domain
T:Public Domain
C:James Milton Black
Z:Public Domain
%%score ( 1 2 ) ( 3 4 )
L:1/8
M:6/8
K:Eb
V:1 treble 
V:2 treble 
V:3 bass 
V:4 bass 
V:1
 [EG][EG][EG] [GB]2 [FA] | [EG]2 [DF] E3 | [B,D][DF][DF] [DF][DF][DF] | E2 [EG] [EG]3 | %4
w: 1.~Beau- ti- ful bells of|E- den fair,|ing at eve on the calm,|still air, Lift-|
w: 2.~Beau- ti- ful bells of|E- den bright,|mur- ing on thro’ the hush|of night, Tell-|
w: 3.~Beau- ti- ful bells of|E- den chime,|ly they breathe in their tones|sub- lime; E-|
 [EG][EG][EG] [GB][GB][GB] | [B_d]2 [Bd] [Ac]3 | [Ac][Ac][Ac] [GB][GB][FA] | [EG]2 [DF] E3 || %8
w: the soul with its toil op-|pressed, In- to|the vales of the pure and|blessed. Sweet, beau-|
w: my soul of the friends I|love, Ga- thered|and safe in their home a-|bove. * *|
w: of joy from a white- robed|throng, Prais- ing|the Lord in a world of|song. * *|
"^Refrain" [GB]3 [GB][Ac][GB] | (F2 F [FA]2) [FA] | [FA][FA][FA] (FF)[Ac] | (G2 G [GB]3) | %12
w: ful bells; That oft|in * * a|I hear, Wel- come * the|sage * *|
w: ||||
w: ||||
 [EG][EG][EG] [GB][GB][GB] | [Ge]2 [Bd] [Ac]3 | [ce][Bd][Ac] [GB][GB][FA] | [EG]2 [DF] E3 |] %16
w: bring to me, O- ver the|waves of the|crys- tal sea. * * *||
w: ||||
w: ||||
V:2
 x6 | x3 E3 | x6 | E2 x4 | x6 | x6 | x6 | x3 E3 || x6 | A3- x3 | x3 d2 x | B3- x3 | x6 | x6 | x6 | %15
w: |Chim-||ing||||ti-||dream|mes-|they||||
w: |Mur-||ing||||||||||||
w: |Soft-||cho||||||||||||
 x3 E3 |] %16
w: |
w: |
w: |
V:3
 [E,B,][E,B,][E,B,] [E,B,]2 [A,,C] | [B,,B,]2 [B,,A,] [E,G,]3 | %2
w: ~ ~ ~ ~ ~|~ ~ ~|
 [B,,F,][B,,B,][B,,B,] [B,,B,][B,,B,][B,,B,] | [E,G,]2 [E,B,] [E,B,]3 | %4
w: ~ ~ ~ ~ ~ ~|~ ~ ~|
 [E,B,][E,B,][E,B,] [E,E][E,E][E,E] | [E,E]2 [G,E] [A,E]3 | [A,E][A,E][A,E] [B,E][B,E]B, | %7
w: ~ ~ ~ ~ ~ ~|~ ~ ~|~ ~ ~ ~ ~ ~|
 [B,,B,]2 [B,,A,] [E,G,]3 || [E,E]3 [E,E][E,E][E,E] | [B,,D]2 [B,,D] [B,,D]2 [B,,D] | %10
w: ~ ~ ~|~ ~ ~ ~|so dear; ~ ~|
 [B,,D][B,,D][B,,D] [B,,B,][B,,B,][B,,D] | [E,E]2 [E,E] [E,E]3 | %12
w: ~ ~ ~ in a dream|I hear, *|
 [E,B,][E,B,][E,B,] [E,E][E,E][E,E] | [E,B,]2 [G,E] [A,E]3 | [A,E][A,E][A,E] [B,E][B,E]B, | %15
w: |||
 [B,,B,]2 [B,,A,] [E,G,]3 |] %16
w: |
V:4
 x6 | x6 | x6 | x6 | x6 | x6 | x5 B, | x6 || x6 | x6 | x6 | x6 | x6 | x6 | x5 B, | x6 |] %16
w: ||||||~||||||||||

